lib/functional/math&finance/number-square-four.svg

<svg xmlns="http://www.w3.org/2000/svg" fill="none" stroke="currentColor" aria-hidden="true" viewBox="0 0 32 32"><g id="Icon-NumberSquareFour"><g clip-path="url(#clip0_12_4852)"><g id="size=md (32px)"><g id="NumberSquareFour"><path id="Vector" stroke-linecap="round" stroke-linejoin="round" stroke-width="2" d="M15.5 9.5L12.5 18H18.5"/><path id="Vector_2" stroke-linecap="round" stroke-linejoin="round" stroke-width="2" d="M18.5 14V22"/><path id="Vector_3" stroke-linecap="round" stroke-linejoin="round" stroke-width="2" d="M26 5H6C5.44772 5 5 5.44772 5 6V26C5 26.5523 5.44772 27 6 27H26C26.5523 27 27 26.5523 27 26V6C27 5.44772 26.5523 5 26 5Z"/></g></g></g></g><defs><clipPath id="clip0_12_4852"><rect width="32" height="32" fill="white" rx="5"/></clipPath></defs></svg>

<svg xmlns="http://www.w3.org/2000/svg" fill="none" stroke="currentColor" aria-hidden="true" viewBox="0 0 32 32"><g stroke="#101828" stroke-linecap="round" stroke-linejoin="round" stroke-width="2" clip-path="url(#a)"><path d="m15.5 9.5-3 8.5h6m0-4v8"/><path d="M26 5H6a1 1 0 0 0-1 1v20a1 1 0 0 0 1 1h20a1 1 0 0 0 1-1V6a1 1 0 0 0-1-1Z"/></g><defs><clipPath id="a"><rect width="32" height="32" fill="#fff" rx="5"/></clipPath></defs></svg>
